app/dist/common/images/cohu.svg

<svg height="18" viewBox="0 0 18 18" width="18" xmlns="http://www.w3.org/2000/svg"><path d="m0 0h18v18h-18z" fill="#0055a3"/><path d="m10.84 10-3.67-6h1.33l3.67 6h-1.32zm5.16.37h-7.4l-.76 1.13h7.4zm-2.46 1.5h-5.84l-.77 1.13h5.86zm-5.19-4.57-3.51 5.7h1.33l2.83-4.62zm-.9-1.53-4.45 7.23h1.33l3.77-6.15-.66-1.08zm5.2 4.23-3.15-5.25h1.32l3.15 5.25z" fill="#fff"/></svg>

<!-- by TradingView --><svg xmlns="http://www.w3.org/2000/svg" width="18" height="18" viewBox="0 0 18 18"><path fill="#0055A3" d="M0 0h18v18H0z"/><path d="M10.84 10 7.17 4H8.5l3.67 6h-1.32Zm5.16.37H8.6l-.76 1.13h7.4l.76-1.13Zm-2.46 1.5H7.7L6.93 13h5.86l.75-1.13ZM8.35 7.3 4.84 13h1.33L9 8.38 8.35 7.3Zm-.9-1.53L3 13h1.33L8.1 6.85l-.66-1.08Zm5.2 4.23L9.5 4.75h1.32L13.97 10h-1.32Z" fill="#fff"/></svg>
